static/fa/svgs/solid/face-grimace.svg

<svg xmlns="http://www.w3.org/2000/svg" viewBox="0 0 512 512"><!--! Font Awesome Free 6.1.1 by @fontawesome - https://fontawesome.com License - https://fontawesome.com/license/free (Icons: CC BY 4.0, Fonts: SIL OFL 1.1, Code: MIT License) Copyright 2022 Fonticons, Inc.--><path d="M0 256C0 114.6 114.6 0 256 0s256 114.6 256 256-114.6 256-256 256S0 397.4 0 256zm399.3 104H344v40h8c23.8 0 43.5-17.3 47.3-40zM352 304h-8v40h55.3c-3.8-22.7-23.5-40-47.3-40zm-24 40v-40h-64v40h64zm0 56v-40h-64v40h64zm-144-96v40h64v-40h-64zm0 56v40h64v-40h-64zm-16-16v-40h-8c-23.8 0-43.5 17.3-47.3 40H168zm0 56v-40h-55.3c3.8 22.7 23.5 40 47.3 40h8zm8.4-224c-17.7 0-32 14.3-32 32s14.3 32 32 32c17.6 0 32-14.3 32-32s-14.4-32-32-32zm160 64c17.6 0 32-14.3 32-32s-14.4-32-32-32c-17.7 0-32 14.3-32 32s14.3 32 32 32z"/></svg>

<svg xmlns="http://www.w3.org/2000/svg" viewBox="0 0 512 512"><!--! Font Awesome Free 6.1.1 by @fontawesome - https://fontawesome.com License - https://fontawesome.com/license/free (Icons: CC BY 4.0, Fonts: SIL OFL 1.1, Code: MIT License) Copyright 2022 Fonticons, Inc. --><path d="M0 256C0 114.6 114.6 0 256 0C397.4 0 512 114.6 512 256C512 397.4 397.4 512 256 512C114.6 512 0 397.4 0 256zM399.3 360H344V400H352C375.8 400 395.5 382.7 399.3 360zM352 304H344V344H399.3C395.5 321.3 375.8 304 352 304zM328 344V304H264V344H328zM328 400V360H264V400H328zM184 304V344H248V304H184zM184 360V400H248V360H184zM168 344V304H160C136.2 304 116.5 321.3 112.7 344H168zM168 400V360H112.7C116.5 382.7 136.2 400 160 400H168zM176.4 176C158.7 176 144.4 190.3 144.4 208C144.4 225.7 158.7 240 176.4 240C194 240 208.4 225.7 208.4 208C208.4 190.3 194 176 176.4 176zM336.4 240C354 240 368.4 225.7 368.4 208C368.4 190.3 354 176 336.4 176C318.7 176 304.4 190.3 304.4 208C304.4 225.7 318.7 240 336.4 240z"/></svg>
